X:447
T:Reel 447
M:4/4
K:Gmaj
L:1/8
B|dBGd GBdg| (3efg dB cAAc| (3BAG dG BGdG|cAdA BGG:|f|gbag fdde|fdcB AGAc|gabg fgaf|cdfA BGGf|gabg abag|fgab c'2bc'| (3d'c'b  (3c'ba bgag|fdcA BGG|
